X:1
T:Bring Her Again, O Western Wind
T:Bring Her Again, O Western Wind 
T:Cecil Forsyth
T: William Ernest Henley
T:by IMSLP - Public Domain
T:by IMSLP - Public Domain
T:by IMSLP - Public Domain
T:by IMSLP - Public Domain
C:CECIL
C:FORSYTH
Z:W.
Z:E.
Z:HENLEY
Z:by IMSLP - Public Domain
%%score ( 1 2 ) { 3 | 4 }
L:1/8
Q:1/4=135
M:6/8
K:E
V:1 treble nm="Voice"
V:2 treble 
V:3 treble nm="Piano"
V:4 bass 
V:1
"^Allegro con fuoco" z6 | z6 | G3/2 F/ E B2 B | c2 G G3 | G3/2 F/ E B2 B | G3 z2 z | %6
w: ||Bring her a\- gain, O|west\- ern wind,|O\- ver the west\- ern|sea,|
 B3/2 ^A/ G c2 G | B2 G G3 | G3/2 ^A/ B c2 e | d3 z z2 | =A B c g2 f | B2 d c2 z | %12
w: Gen\- tle and good and|fair and kind,|Bring her a\- gain to|me.|Not that her fan\- cy|holds me dear,|
"^Allargando" ABc g2 f | e6 |"^a tempo" G3/2 F/ E G2 G | c2 A c3 | %16
w: Not that a hope may|be:|On\- ly that I may|know her near,|
"^non rall.   molto ritmico" e3- e =d =c | e3 e3 | e6- | e6- | e6- | b z z z2 z |] %22
w: Wind _ of the|west\- ern|sea.|_|||
V:2
 x6 | x6 | x6 | x6 | x6 | x6 | x6 | x6 | x6 | x6 | x6 | x6 | x6 | x6 | x6 | x6 | x6 | x6 | b6- | %19
 b6- | b6- | e x5 |] %22
V:3
!mp! (G>FE B2 B | [EGc]2 [EG] [EG]3) | x6 | x6 | x6 | (G>FE B2 c | G) z/ x4 x/ | x6 | x6 | %9
w: con~Pedale * * * *|||||||||
 (G>^AB c2 e |"_cresc." d) z/ x4 x/ | x6 | x6 | x6 | x6 | x6 |"_cresc." z6 | x6 | x6 | x6 | x6 | %21
w: ||||||||||||
!ff! [egbe'] z z !>!E3 |] %22
w: |
V:4
 z/!ped! (E,,/B,,/E,/G,/B,/) z/ (C/B,/G,/E,/G,/) | z/ (E,,/B,,/E,/G,/B,/) z/ (C/B,/G,/E,/G,/) | %2
w: ||
!p! (E,,/B,,/E,/[I:staff -1] G,/B,/C/ E/C/B,/G,/[I:staff +1] E,/B,,/) | %3
w: |
!p! (E,,/B,,/E,/[I:staff -1] G,/B,/C/ E/C/B,/G,/[I:staff +1] E,/B,,/) | %4
w: |
!p! (E,,/B,,/E,/[I:staff -1] G,/B,/C/ E/C/B,/G,/[I:staff +1] E,/B,,/) | %5
w: |
 z/ (E,,/B,,/E,/G,/B,/) z/ (C/B,/G,/E,/G,/) | %6
w: |
!p! (G,,/D,/G,/[I:staff -1] B,/D/G/)[I:staff +1] (G,,/D,/G,/[I:staff -1] B,/D/G/) | %7
w: |
!p![I:staff +1] (E,,/B,,/E,/[I:staff -1] G,/B,/C/ E/C/B,/G,/[I:staff +1] E,/B,,/) | %8
w: |
 (G,,/D,/G,/[I:staff -1] B,/D/G/)[I:staff +1] (C,/E,/G,/[I:staff -1] ^A,/C/E/) | %9
w: |
[I:staff +1] z/ (G,,/D,/G,/B,/G,/) z/ (C,/E,/G,/C/G,/) | %10
w: |
 (=A,/C/D/[I:staff -1] F/A/c/ d/c/A/F/[I:staff +1] E,/B,,/) | %11
w: |
 (G,/B,/E/[I:staff -1] G/B/d/ c/B/G/E/[I:staff +1] C/B,/) | %12
w: |
 (A,/C/D/[I:staff -1] F/A/c/)[I:staff +1] (G,/^B,/F/[I:staff -1] G/^B/d/) | %13
w: |
!mf![I:staff +1] (C,/G,/C/[I:staff -1] E/G/B/ e/c/G/E/[I:staff +1] C/G,/) | %14
w: |
!p! (=C/E/"^cresc."[I:staff -1] G/=c/e/c/ e/c/G/[I:staff +1] E/C/E/) | %15
w: * * subito * * * * * * * * *|
 (F,/^C/E/[I:staff -1] ^c/e/c/ e/c/A/c/F/A/) | %16
w: |
[I:staff +1] (=C,/^A,/=C/[I:staff -1] E/=G/^A/ e/A/G/A/E/G/) | %17
w: molto * * * * * * * * * * *|
[I:staff +1] (=E,/^A,/=C/[I:staff -1] E/=G/^A/ e/A/G/A/E/G/) | %18
w: |
!f!"^cresc."[I:staff +1] (E,,/B,,/E,/[I:staff -1] G,/B,/C/ E/C/B,/C/G,/B,/) | %19
w: |
[I:staff +1] (E,/B,/E/[I:staff -1] G/B/c/ e/c/B/G/[I:staff +1] C/B,/) | %20
w: |
[K:treble][I:staff -1] (g/e/c/B/[I:staff +1] G/E/)[I:staff -1] (b/g/e/c/[I:staff +1] B/G/) | %21
w: |
 [EB] z z[K:bass] !>![E,,E,]3!ped-up! |] %22
w: |

